static/img/kroki/6003858947c29b46e2a3acaafdcf7eda.svg

<?xml version="1.0" encoding="us-ascii" standalone="no"?><svg xmlns="http://www.w3.org/2000/svg" xmlns:xlink="http://www.w3.org/1999/xlink" contentStyleType="text/css" height="252px" preserveAspectRatio="none" style="width:499px;height:252px;" version="1.1" viewBox="0 0 499 252" width="499px" zoomAndPan="magnify"><defs/><g><!--class aws_backup_copy_job--><g id="elem_aws_backup_copy_job"><rect codeLine="23" fill="#3D176E" height="39.7891" id="aws_backup_copy_job" rx="2.5" ry="2.5" style="stroke:#000D19;stroke-width:0.5;" width="224" x="7" y="106.79"/><ellipse cx="22" cy="126.6845" fill="#ADD1B2" rx="11" ry="11" style="stroke:#181818;stroke-width:1.0;"/><path d="M24.9688,132.3252 Q24.3906,132.622 23.75,132.7627 Q23.1094,132.9189 22.4063,132.9189 Q19.9063,132.9189 18.5781,131.2783 Q17.2656,129.622 17.2656,126.497 Q17.2656,123.372 18.5781,121.7158 Q19.9063,120.0595 22.4063,120.0595 Q23.1094,120.0595 23.75,120.2158 Q24.4063,120.372 24.9688,120.6689 L24.9688,123.3877 Q24.3438,122.8095 23.75,122.5439 Q23.1563,122.2627 22.5313,122.2627 Q21.1875,122.2627 20.5,123.3408 Q19.8125,124.4033 19.8125,126.497 Q19.8125,128.5908 20.5,129.6689 Q21.1875,130.7314 22.5313,130.7314 Q23.1563,130.7314 23.75,130.4658 Q24.3438,130.1845 24.9688,129.6064 L24.9688,132.3252 Z " fill="#000000"/><text fill="#D9B8FF" font-family="Helvetica" font-size="17" lengthAdjust="spacing" textLength="182" x="41" y="132.5698">aws_backup_copy_job</text></g><!--class aws_backup_job--><g id="elem_aws_backup_job"><rect codeLine="26" fill="#3D176E" height="39.7891" id="aws_backup_job" rx="2.5" ry="2.5" style="stroke:#000D19;stroke-width:0.5;" width="177" x="265.5" y="106.79"/><ellipse cx="280.5" cy="126.6845" fill="#ADD1B2" rx="11" ry="11" style="stroke:#181818;stroke-width:1.0;"/><path d="M283.4688,132.3252 Q282.8906,132.622 282.25,132.7627 Q281.6094,132.9189 280.9063,132.9189 Q278.4063,132.9189 277.0781,131.2783 Q275.7656,129.622 275.7656,126.497 Q275.7656,123.372 277.0781,121.7158 Q278.4063,120.0595 280.9063,120.0595 Q281.6094,120.0595 282.25,120.2158 Q282.9063,120.372 283.4688,120.6689 L283.4688,123.3877 Q282.8438,122.8095 282.25,122.5439 Q281.6563,122.2627 281.0313,122.2627 Q279.6875,122.2627 279,123.3408 Q278.3125,124.4033 278.3125,126.497 Q278.3125,128.5908 279,129.6689 Q279.6875,130.7314 281.0313,130.7314 Q281.6563,130.7314 282.25,130.4658 Q282.8438,130.1845 283.4688,129.6064 L283.4688,132.3252 Z " fill="#000000"/><text fill="#D9B8FF" font-family="Helvetica" font-size="17" lengthAdjust="spacing" textLength="135" x="299.5" y="132.5698">aws_backup_job</text></g><!--class aws_backup_plan--><g id="elem_aws_backup_plan"><rect codeLine="29" fill="#3D176E" height="39.7891" id="aws_backup_plan" rx="2.5" ry="2.5" style="stroke:#000D19;stroke-width:0.5;" width="188" x="260" y="7"/><ellipse cx="275" cy="26.8945" fill="#ADD1B2" rx="11" ry="11" style="stroke:#181818;stroke-width:1.0;"/><path d="M277.9688,32.5352 Q277.3906,32.832 276.75,32.9727 Q276.1094,33.1289 275.4063,33.1289 Q272.9063,33.1289 271.5781,31.4883 Q270.2656,29.832 270.2656,26.707 Q270.2656,23.582 271.5781,21.9258 Q272.9063,20.2695 275.4063,20.2695 Q276.1094,20.2695 276.75,20.4258 Q277.4063,20.582 277.9688,20.8789 L277.9688,23.5977 Q277.3438,23.0195 276.75,22.7539 Q276.1563,22.4727 275.5313,22.4727 Q274.1875,22.4727 273.5,23.5508 Q272.8125,24.6133 272.8125,26.707 Q272.8125,28.8008 273.5,29.8789 Q274.1875,30.9414 275.5313,30.9414 Q276.1563,30.9414 276.75,30.6758 Q277.3438,30.3945 277.9688,29.8164 L277.9688,32.5352 Z " fill="#000000"/><text fill="#D9B8FF" font-family="Helvetica" font-size="17" lengthAdjust="spacing" textLength="146" x="294" y="32.7798">aws_backup_plan</text></g><!--class aws_backup_recovery_point--><g id="elem_aws_backup_recovery_point"><rect codeLine="32" fill="#3D176E" height="39.7891" id="aws_backup_recovery_point" rx="2.5" ry="2.5" style="stroke:#000D19;stroke-width:0.5;" width="276" x="216" y="206.58"/><ellipse cx="231" cy="226.4745" fill="#ADD1B2" rx="11" ry="11" style="stroke:#181818;stroke-width:1.0;"/><path d="M233.9688,232.1152 Q233.3906,232.412 232.75,232.5527 Q232.1094,232.7089 231.4063,232.7089 Q228.9063,232.7089 227.5781,231.0683 Q226.2656,229.412 226.2656,226.287 Q226.2656,223.162 227.5781,221.5058 Q228.9063,219.8495 231.4063,219.8495 Q232.1094,219.8495 232.75,220.0058 Q233.4063,220.162 233.9688,220.4589 L233.9688,223.1777 Q233.3438,222.5995 232.75,222.3339 Q232.1563,222.0527 231.5313,222.0527 Q230.1875,222.0527 229.5,223.1308 Q228.8125,224.1933 228.8125,226.287 Q228.8125,228.3808 229.5,229.4589 Q230.1875,230.5214 231.5313,230.5214 Q232.1563,230.5214 232.75,230.2558 Q233.3438,229.9745 233.9688,229.3964 L233.9688,232.1152 Z " fill="#000000"/><text fill="#D9B8FF" font-family="Helvetica" font-size="17" lengthAdjust="spacing" textLength="234" x="250" y="232.3598">aws_backup_recovery_point</text></g><!--link aws_backup_copy_job to aws_backup_recovery_point--><g id="link_aws_backup_copy_job_aws_backup_recovery_point"><path codeLine="35" d="M165.43,147.01 C206.63,164.15 260.9609,186.7539 302.1309,203.8939 " fill="none" id="aws_backup_copy_job-to-aws_backup_recovery_point" style="stroke:#1A83AF;stroke-width:2.0;"/><polygon fill="#1A83AF" points="307.67,206.2,300.8987,199.0481,303.0541,204.2783,297.8239,206.4337,307.67,206.2" style="stroke:#1A83AF;stroke-width:2.0;"/></g><!--link aws_backup_job to aws_backup_recovery_point--><g id="link_aws_backup_job_aws_backup_recovery_point"><path codeLine="36" d="M354,147.01 C354,164.15 354,183.06 354,200.2 " fill="none" id="aws_backup_job-to-aws_backup_recovery_point" style="stroke:#1A83AF;stroke-width:2.0;"/><polygon fill="#1A83AF" points="354,206.2,358,197.2,354,201.2,350,197.2,354,206.2" style="stroke:#1A83AF;stroke-width:2.0;"/></g><!--link aws_backup_plan to aws_backup_copy_job--><g id="link_aws_backup_plan_aws_backup_copy_job"><path codeLine="37" d="M307.57,47.22 C266.37,64.36 212.0391,86.9639 170.8691,104.1039 " fill="none" id="aws_backup_plan-to-aws_backup_copy_job" style="stroke:#1A83AF;stroke-width:2.0;"/><polygon fill="#1A83AF" points="165.33,106.41,175.1761,106.6437,169.9459,104.4883,172.1013,99.2581,165.33,106.41" style="stroke:#1A83AF;stroke-width:2.0;"/></g><!--link aws_backup_plan to aws_backup_job--><g id="link_aws_backup_plan_aws_backup_job"><path codeLine="38" d="M354,47.22 C354,64.36 354,83.27 354,100.41 " fill="none" id="aws_backup_plan-to-aws_backup_job" style="stroke:#1A83AF;stroke-width:2.0;"/><polygon fill="#1A83AF" points="354,106.41,358,97.41,354,101.41,350,97.41,354,106.41" style="stroke:#1A83AF;stroke-width:2.0;"/></g><!--link aws_backup_plan to aws_backup_recovery_point--><g id="link_aws_backup_plan_aws_backup_recovery_point"><path codeLine="39" d="M396.3,47.2 C419.7,60.37 446.67,80.24 460,106.79 C467.94,122.59 467.94,130.78 460,146.58 C446.67,173.13 424.9297,190.0689 401.5297,203.2289 " fill="none" id="aws_backup_plan-to-aws_backup_recovery_point" style="stroke:#1A83AF;stroke-width:2.0;"/><polygon fill="#1A83AF" points="396.3,206.17,406.1053,205.2447,400.6581,203.719,402.1838,198.2718,396.3,206.17" style="stroke:#1A83AF;stroke-width:2.0;"/></g><!--SRC=[bP1DRy8m38Rl_HMHE2FHeGsuJEgGq7P1qzXjcYgtSI1hcqHE07NJ_llu65D8AOohtyVsOoyaHuQLSJMhiCgGR6GBgGmGL2mXqkknBZMnZX0W-eCmd6ZbBW9Jg90zOhb29tC8YTU5p0k5rh8RBtg0l9YJNYg-7-y8bDr4g9n7ZKkmDd6EPBPqwCdmKJOK8YJ3ePq-ZmTtsC0qSQHVfDVhyNWK8XTNdRtxZvZ9JsIn_xIfTjZGRApOKMSjjuGdsJZqaBSwFWFdKitPhLTxsJkHGZggpnR0zNfB2oYjlyOw9DIkDZXkN8MZ8HU3a_1J6npbszSnMDiqso1Ba-RQrEc7pjXN57qtu_R4bA1Q8i9Shv3gr6Yft1uwjRBxrecJOJ-Pl7Vls_kZGEVwhfrgMzl1vjyDrx21qmy0]--></g></svg>

<svg xmlns="http://www.w3.org/2000/svg" width="499" height="252" viewBox="0 0 499 252"><rect width="224" height="39.789" x="7" y="106.79" fill="#3D176E" rx="2.5" ry="2.5" style="stroke:#000d19;stroke-width:.5"/><circle cx="22" cy="126.684" r="11" fill="#ADD1B2" style="stroke:#181818;stroke-width:1"/><path d="M24.969 132.325q-.578.297-1.219.438-.64.156-1.344.156-2.5 0-3.828-1.64-1.312-1.657-1.312-4.782t1.312-4.781q1.328-1.656 3.828-1.656.703 0 1.344.156.656.156 1.219.453v2.719q-.625-.579-1.219-.844-.594-.281-1.219-.281-1.343 0-2.031 1.078-.687 1.062-.687 3.156t.687 3.172q.688 1.062 2.031 1.062.625 0 1.219-.265.594-.281 1.219-.86z"/><text x="41" y="132.57" fill="#D9B8FF" font-family="Helvetica" font-size="17" textLength="182">aws_backup_copy_job</text><rect width="177" height="39.789" x="265.5" y="106.79" fill="#3D176E" rx="2.5" ry="2.5" style="stroke:#000d19;stroke-width:.5"/><circle cx="280.5" cy="126.684" r="11" fill="#ADD1B2" style="stroke:#181818;stroke-width:1"/><path d="M283.469 132.325q-.578.297-1.219.438-.64.156-1.344.156-2.5 0-3.828-1.64-1.312-1.657-1.312-4.782t1.312-4.781q1.328-1.656 3.828-1.656.703 0 1.344.156.656.156 1.219.453v2.719q-.625-.579-1.219-.844-.594-.281-1.219-.281-1.344 0-2.031 1.078-.687 1.062-.687 3.156t.687 3.172q.688 1.062 2.031 1.062.625 0 1.219-.265.594-.281 1.219-.86z"/><text x="299.5" y="132.57" fill="#D9B8FF" font-family="Helvetica" font-size="17" textLength="135">aws_backup_job</text><rect width="188" height="39.789" x="260" y="7" fill="#3D176E" rx="2.5" ry="2.5" style="stroke:#000d19;stroke-width:.5"/><circle cx="275" cy="26.895" r="11" fill="#ADD1B2" style="stroke:#181818;stroke-width:1"/><path d="M277.969 32.535q-.578.297-1.219.438-.64.156-1.344.156-2.5 0-3.828-1.64-1.312-1.657-1.312-4.782t1.312-4.781q1.328-1.656 3.828-1.656.703 0 1.344.156.656.156 1.219.453v2.719q-.625-.578-1.219-.844-.594-.281-1.219-.281-1.344 0-2.031 1.078-.687 1.062-.687 3.156t.687 3.172q.688 1.062 2.031 1.062.625 0 1.219-.265.594-.281 1.219-.86z"/><text x="294" y="32.78" fill="#D9B8FF" font-family="Helvetica" font-size="17" textLength="146">aws_backup_plan</text><rect width="276" height="39.789" x="216" y="206.58" fill="#3D176E" rx="2.5" ry="2.5" style="stroke:#000d19;stroke-width:.5"/><circle cx="231" cy="226.475" r="11" fill="#ADD1B2" style="stroke:#181818;stroke-width:1"/><path d="M233.969 232.115q-.578.297-1.219.438-.64.156-1.344.156-2.5 0-3.828-1.64-1.312-1.657-1.312-4.782t1.312-4.781q1.328-1.656 3.828-1.656.703 0 1.344.156.656.156 1.219.453v2.719q-.625-.578-1.219-.844-.594-.281-1.219-.281-1.344 0-2.031 1.078-.687 1.062-.687 3.156t.687 3.172q.688 1.062 2.031 1.062.625 0 1.219-.265.594-.281 1.219-.86z"/><text x="250" y="232.36" fill="#D9B8FF" font-family="Helvetica" font-size="17" textLength="234">aws_backup_recovery_point</text><path fill="none" d="M165.43 147.01c41.2 17.14 95.53 39.744 136.7 56.884" style="stroke:#1a83af;stroke-width:2"/><path fill="#1A83AF" d="m307.67 206.2-6.771-7.152 2.155 5.23-5.23 2.156z" style="stroke:#1a83af;stroke-width:2"/><path fill="none" d="M354 147.01v53.19" style="stroke:#1a83af;stroke-width:2"/><path fill="#1A83AF" d="m354 206.2 4-9-4 4-4-4z" style="stroke:#1a83af;stroke-width:2"/><path fill="none" d="M307.57 47.22c-41.2 17.14-95.53 39.744-136.7 56.884" style="stroke:#1a83af;stroke-width:2"/><path fill="#1A83AF" d="m165.33 106.41 9.846.234-5.23-2.156 2.155-5.23z" style="stroke:#1a83af;stroke-width:2"/><path fill="none" d="M354 47.22v53.19" style="stroke:#1a83af;stroke-width:2"/><path fill="#1A83AF" d="m354 106.41 4-9-4 4-4-4z" style="stroke:#1a83af;stroke-width:2"/><path fill="none" d="M396.3 47.2c23.4 13.17 50.37 33.04 63.7 59.59 7.94 15.8 7.94 23.99 0 39.79-13.33 26.55-35.07 43.489-58.47 56.649" style="stroke:#1a83af;stroke-width:2"/><path fill="#1A83AF" d="m396.3 206.17 9.805-.925-5.447-1.526 1.526-5.447z" style="stroke:#1a83af;stroke-width:2"/></svg>
